X:1
T:Kost ar c'hoat Yann Dour
Z:Roger Ngaret (94-95)
R:kostarchoat
C:Trad.
S:Yann Dour
A:Bretagne
M:4/4
L:1/8
K:Bb
Bd "Bb"BB cd "Cm"e2 | cd ed ef "Bb"dd |
Bd BB "F"AB "Cm"cB | cd (3e"F"dc "Bb"B2 B2 :|
f2 fd gf "Cm"e2 | cd ec "Bb"fe "Gm"d2 |
Bd BB "Cm"cd "F"ed | cd (3efe dc B2 :|
